X: 39065
T: Swedish Rhapsody, The
R: polka
M: 2/4
K: Gmajor
GB/d/ g/b/a/f/|gf c>d|ed cA|ed B>A|
GB/d/ g/b/a/f/|gf c>d|ed cF|G3:|
gg gg|f3 G/B/|ee ee|d3 G|
FA/c/ ed|FA FA|FA/c/ ed|1 B3:|2 G3||

